assets/icons/qvision/device_hub.svg

<svg xmlns="http://www.w3.org/2000/svg" height="24" viewBox="0 0 24 24" width="24"><path d="M0 0h24v24H0z" fill="none"/><path d="M0 0h24v24H0V0z" fill="none"/><path d="M17 16l-4-4V8.82C14.16 8.4 15 7.3 15 6c0-1.66-1.34-3-3-3S9 4.34 9 6c0 1.3.84 2.4 2 2.82V12l-4 4H3v5h5v-3.05l4-4.2 4 4.2V21h5v-5h-4z"/></svg>

<svg width="24" height="24" viewBox="0 0 24 24" fill="none" xmlns="http://www.w3.org/2000/svg">
<g clip-path="url(#clip0_147_2952)">
<path d="M17 16L13 12V8.82C14.16 8.4 15 7.3 15 6C15 4.34 13.66 3 12 3C10.34 3 9 4.34 9 6C9 7.3 9.84 8.4 11 8.82V12L7 16H3V21H8V17.95L12 13.75L16 17.95V21H21V16H17Z" fill="#323232"/>
</g>
<defs>
<clipPath id="clip0_147_2952">
<rect width="24" height="24" fill="white"/>
</clipPath>
</defs>
</svg>
